source/img/icon-feature-flower.svg

<svg width="32" height="37" viewBox="0 0 32 37" fill="none" xmlns="http://www.w3.org/2000/svg">
<path d="M16 37C24.8 37 32 29.8387 32 21.086C23.2 21.086 16 28.1479 16 37ZM4.6 16.2124C4.6 18.6989 6.6 20.5887 9 20.5887C9.9 20.5887 10.8 20.2903 11.5 19.793V20.0914C11.5 22.578 13.5 24.4677 15.9 24.4677C18.4 24.4677 20.3 22.4785 20.3 20.0914V19.793C21 20.2903 21.9 20.5887 22.8 20.5887C25.3 20.5887 27.2 18.5995 27.2 16.2124C27.2 14.422 26.2 12.9301 24.7 12.2339C26.2 11.5376 27.2 10.0457 27.2 8.25538C27.2 5.76882 25.2 3.87903 22.8 3.87903C21.9 3.87903 21 4.17742 20.3 4.67473V4.37634C20.3 1.88978 18.3 0 15.9 0C13.4 0 11.5 1.98925 11.5 4.37634V4.67473C10.8 4.17742 9.9 3.87903 9 3.87903C6.5 3.87903 4.6 5.86828 4.6 8.25538C4.6 10.0457 5.6 11.5376 7.1 12.2339C5.7 12.9301 4.6 14.422 4.6 16.2124ZM16 7.75806C18.5 7.75806 20.4 9.74731 20.4 12.1344C20.4 14.621 18.4 16.5108 16 16.5108C13.5 16.5108 11.6 14.5215 11.6 12.1344C11.6 9.74731 13.5 7.75806 16 7.75806ZM0 21.086C0 29.8387 7.2 37 16 37C16 28.1479 8.8 21.086 0 21.086Z" fill="#63D1BB"/>
</svg>

<svg width="32" height="37" fill="none" xmlns="http://www.w3.org/2000/svg"><path d="M16 37c8.8 0 16-7.161 16-15.914-8.8 0-16 7.062-16 15.914zM4.6 16.212c0 2.487 2 4.377 4.4 4.377.9 0 1.8-.299 2.5-.796v.298c0 2.487 2 4.377 4.4 4.377 2.5 0 4.4-1.99 4.4-4.377v-.298c.7.497 1.6.796 2.5.796 2.5 0 4.4-1.99 4.4-4.377 0-1.79-1-3.282-2.5-3.978 1.5-.696 2.5-2.188 2.5-3.979 0-2.486-2-4.376-4.4-4.376-.9 0-1.8.298-2.5.796v-.299C20.3 1.89 18.3 0 15.9 0c-2.5 0-4.4 1.99-4.4 4.376v.299c-.7-.498-1.6-.796-2.5-.796-2.5 0-4.4 1.99-4.4 4.376 0 1.79 1 3.283 2.5 3.979-1.4.696-2.5 2.188-2.5 3.978zM16 7.758c2.5 0 4.4 1.99 4.4 4.376 0 2.487-2 4.377-4.4 4.377-2.5 0-4.4-1.99-4.4-4.377 0-2.387 1.9-4.376 4.4-4.376zM0 21.086C0 29.839 7.2 37 16 37c0-8.852-7.2-15.914-16-15.914z" fill="#63D1BB"/></svg>
